X:14920
T:Scatter the Mud
M:6/8
R:Jig
A:Ireland
Z:Transcribed by Luisa
K:D
eAA ~B2A|eAA ABd|eAA ~B2A|dBG GBd|
eAA ~B2A|eAA AGE|GAB dge|dBA ABd:|
eaa egg|dBA ABd|eaa egg|dBG GBd|
daf ~g2e|dBA AGE|GAB dge|dBA ABd:|
